src/assets/icons/instagram.svg

<svg width="20" height="20" viewBox="0 0 20 20" fill="none" xmlns="http://www.w3.org/2000/svg">
<path d="M10 0C7.283 0 6.944 0.013 5.878 0.06C4.812 0.11 4.088 0.278 3.45 0.525C2.78243 0.775729 2.17767 1.16923 1.678 1.678C1.1688 2.17732 0.775236 2.78218 0.525 3.45C0.278 4.088 0.109 4.812 0.06 5.878C0.01 6.944 0 7.283 0 10C0 12.717 0.013 13.056 0.06 14.123C0.11 15.187 0.278 15.913 0.525 16.55C0.77596 17.2175 1.16943 17.8222 1.678 18.322C2.17753 18.8309 2.78233 19.2245 3.45 19.475C4.088 19.722 4.813 19.891 5.878 19.94C6.944 19.99 7.283 20 10 20C12.717 20 13.056 19.988 14.123 19.94C15.187 19.89 15.913 19.722 16.55 19.475C17.2173 19.2238 17.822 18.8303 18.322 18.322C18.877 17.766 19.221 17.209 19.475 16.55C19.722 15.912 19.891 15.187 19.94 14.122C19.99 13.056 20 12.717 20 10C20 7.283 19.988 6.944 19.94 5.878C19.89 4.813 19.722 4.087 19.475 3.45C19.224 2.78259 18.8305 2.1779 18.322 1.678C17.8228 1.16863 17.2179 0.775032 16.55 0.525C15.912 0.278 15.187 0.109 14.122 0.06C13.056 0.01 12.718 0 10 0ZM10 1.8C12.67 1.8 12.988 1.813 14.042 1.86C15.017 1.905 15.546 2.067 15.898 2.205C16.366 2.385 16.698 2.602 17.049 2.952C17.399 3.302 17.615 3.634 17.796 4.102C17.933 4.454 18.096 4.983 18.14 5.958C18.187 7.013 18.198 7.33 18.198 10C18.198 12.67 18.186 12.988 18.137 14.042C18.086 15.017 17.923 15.546 17.786 15.898C17.599 16.366 17.386 16.698 17.036 17.049C16.7128 17.3802 16.32 17.6354 15.886 17.796C15.536 17.933 14.999 18.096 14.024 18.14C12.963 18.187 12.65 18.198 9.975 18.198C7.299 18.198 6.987 18.186 5.925 18.137C4.95 18.086 4.412 17.923 4.063 17.786C3.588 17.599 3.263 17.386 2.913 17.036C2.57849 16.7149 2.32194 16.3216 2.163 15.886C2.026 15.536 1.864 14.999 1.813 14.024C1.776 12.974 1.763 12.65 1.763 9.988C1.763 7.324 1.776 6.999 1.813 5.937C1.864 4.962 2.026 4.425 2.163 4.075C2.338 3.6 2.563 3.275 2.913 2.925C3.263 2.575 3.588 2.35 4.063 2.175C4.413 2.038 4.938 1.875 5.913 1.825C6.976 1.788 7.288 1.775 9.963 1.775L10 1.8ZM10 4.865C8.63811 4.865 7.33201 5.40601 6.36901 6.36901C5.40601 7.33201 4.865 8.63811 4.865 10C4.865 11.3619 5.40601 12.668 6.36901 13.631C7.33201 14.594 8.63811 15.135 10 15.135C11.3619 15.135 12.668 14.594 13.631 13.631C14.594 12.668 15.135 11.3619 15.135 10C15.135 8.63811 14.594 7.33201 13.631 6.36901C12.668 5.40601 11.3619 4.865 10 4.865V4.865ZM10 13.333C9.34108 13.3328 8.69701 13.1372 8.14922 12.771C7.60143 12.4048 7.17451 11.8844 6.92244 11.2756C6.67038 10.6668 6.60447 9.99697 6.73307 9.35071C6.86167 8.70446 7.17899 8.11085 7.64492 7.64492C8.11085 7.17899 8.70446 6.86167 9.35071 6.73307C9.99697 6.60447 10.6668 6.67038 11.2756 6.92244C11.8844 7.17451 12.4048 7.60143 12.771 8.14922C13.1372 8.69701 13.3328 9.34108 13.333 10C13.3331 10.4377 13.247 10.8712 13.0796 11.2756C12.9121 11.6801 12.6666 12.0476 12.3571 12.3571C12.0476 12.6666 11.6801 12.9121 11.2756 13.0796C10.8712 13.247 10.4377 13.3331 10 13.333V13.333ZM16.538 4.663C16.538 4.98126 16.4116 5.28648 16.1865 5.51153C15.9615 5.73657 15.6563 5.863 15.338 5.863C15.0197 5.863 14.7145 5.73657 14.4895 5.51153C14.2644 5.28648 14.138 4.98126 14.138 4.663C14.138 4.34474 14.2644 4.03952 14.4895 3.81447C14.7145 3.58943 15.0197 3.463 15.338 3.463C15.6563 3.463 15.9615 3.58943 16.1865 3.81447C16.4116 4.03952 16.538 4.34474 16.538 4.663V4.663Z" fill="white"/>
</svg>

<svg height="20" width="20" class="css-1mdgr0k-InstagramLogo"><path d="M10 0C7.283 0 6.944.013 5.878.06 4.812.11 4.088.278 3.45.525a4.897 4.897 0 0 0-1.772 1.153A4.88 4.88 0 0 0 .525 3.45C.278 4.088.109 4.812.06 5.878.01 6.944 0 7.283 0 10c0 2.717.013 3.056.06 4.123.05 1.064.218 1.79.465 2.427a4.905 4.905 0 0 0 1.153 1.772 4.89 4.89 0 0 0 1.772 1.153c.638.247 1.363.416 2.428.465 1.066.05 1.405.06 4.122.06 2.717 0 3.056-.012 4.123-.06 1.064-.05 1.79-.218 2.427-.465a4.915 4.915 0 0 0 1.772-1.153c.555-.556.899-1.113 1.153-1.772.247-.638.416-1.363.465-2.428.05-1.066.06-1.405.06-4.122 0-2.717-.012-3.056-.06-4.122-.05-1.065-.218-1.791-.465-2.428a4.908 4.908 0 0 0-1.153-1.772A4.873 4.873 0 0 0 16.55.525C15.912.278 15.187.109 14.122.06 13.056.01 12.718 0 10 0Zm0 1.8c2.67 0 2.988.013 4.042.06.975.045 1.504.207 1.856.345.468.18.8.397 1.151.747.35.35.566.682.747 1.15.137.352.3.881.344 1.856.047 1.055.058 1.372.058 4.042s-.012 2.988-.061 4.042c-.051.975-.214 1.504-.351 1.856-.187.468-.4.8-.75 1.151a3.12 3.12 0 0 1-1.15.747c-.35.137-.887.3-1.862.344-1.061.047-1.374.058-4.049.058-2.676 0-2.988-.012-4.05-.061-.975-.051-1.513-.214-1.862-.351-.475-.187-.8-.4-1.15-.75a3.037 3.037 0 0 1-.75-1.15c-.137-.35-.299-.887-.35-1.862-.037-1.05-.05-1.374-.05-4.036 0-2.664.013-2.989.05-4.051.051-.975.213-1.512.35-1.862.175-.475.4-.8.75-1.15.35-.35.675-.575 1.15-.75.35-.137.875-.3 1.85-.35 1.063-.037 1.375-.05 4.05-.05L10 1.8Zm0 3.065a5.135 5.135 0 1 0 0 10.27 5.135 5.135 0 0 0 0-10.27Zm0 8.468A3.332 3.332 0 1 1 13.333 10 3.332 3.332 0 0 1 10 13.333Zm6.538-8.67a1.2 1.2 0 0 1-2.4 0 1.2 1.2 0 0 1 2.4 0Z"/></svg>
